X: 7637
T: Colbagh Breck
R: slip jig
M: 9/8
K: Eminor
B3 g2 e f2 d|B2 d d2 B d3|B3 g2 e f2 d|B2 e e2 d e3:|
B3 B2 A G2 A|B2 d d2 B d3|B3 B2 A G2 A|B2 e e2 d e3|
B3 g2 e f2 d|B2 d d2 B d3|B3 g2 e f2 d|B2 e e2 d e3|

